static/img/kroki/c3466b58d9699c94f31c4a2cf3f63171.svg

<?xml version="1.0" encoding="us-ascii" standalone="no"?><svg xmlns="http://www.w3.org/2000/svg" xmlns:xlink="http://www.w3.org/1999/xlink" contentStyleType="text/css" height="573px" preserveAspectRatio="none" style="width:282px;height:573px;" version="1.1" viewBox="0 0 282 573" width="282px" zoomAndPan="magnify"><defs/><g><!--class ai_job--><g id="elem_ai_job"><rect codeLine="23" fill="#3D176E" height="39.7891" id="ai_job" rx="2.5" ry="2.5" style="stroke:#000D19;stroke-width:0.5;" width="91" x="41" y="367.37"/><ellipse cx="56" cy="387.2645" fill="#ADD1B2" rx="11" ry="11" style="stroke:#181818;stroke-width:1.0;"/><path d="M58.9688,392.9052 Q58.3906,393.202 57.75,393.3427 Q57.1094,393.4989 56.4063,393.4989 Q53.9063,393.4989 52.5781,391.8583 Q51.2656,390.202 51.2656,387.077 Q51.2656,383.952 52.5781,382.2958 Q53.9063,380.6395 56.4063,380.6395 Q57.1094,380.6395 57.75,380.7958 Q58.4063,380.952 58.9688,381.2489 L58.9688,383.9677 Q58.3438,383.3895 57.75,383.1239 Q57.1563,382.8427 56.5313,382.8427 Q55.1875,382.8427 54.5,383.9208 Q53.8125,384.9833 53.8125,387.077 Q53.8125,389.1708 54.5,390.2489 Q55.1875,391.3114 56.5313,391.3114 Q57.1563,391.3114 57.75,391.0458 Q58.3438,390.7645 58.9688,390.1864 L58.9688,392.9052 Z " fill="#000000"/><text fill="#D9B8FF" font-family="Helvetica" font-size="17" lengthAdjust="spacing" textLength="49" x="75" y="393.1498">ai_job</text></g><!--class ai_resource--><g id="elem_ai_resource"><rect codeLine="26" fill="#3D176E" height="39.7891" id="ai_resource" rx="2.5" ry="2.5" style="stroke:#000D19;stroke-width:0.5;" width="137" x="7" y="167.79"/><ellipse cx="22" cy="187.6845" fill="#ADD1B2" rx="11" ry="11" style="stroke:#181818;stroke-width:1.0;"/><path d="M24.9688,193.3252 Q24.3906,193.622 23.75,193.7627 Q23.1094,193.9189 22.4063,193.9189 Q19.9063,193.9189 18.5781,192.2783 Q17.2656,190.622 17.2656,187.497 Q17.2656,184.372 18.5781,182.7158 Q19.9063,181.0595 22.4063,181.0595 Q23.1094,181.0595 23.75,181.2158 Q24.4063,181.372 24.9688,181.6689 L24.9688,184.3877 Q24.3438,183.8095 23.75,183.5439 Q23.1563,183.2627 22.5313,183.2627 Q21.1875,183.2627 20.5,184.3408 Q19.8125,185.4033 19.8125,187.497 Q19.8125,189.5908 20.5,190.6689 Q21.1875,191.7314 22.5313,191.7314 Q23.1563,191.7314 23.75,191.4658 Q24.3438,191.1845 24.9688,190.6064 L24.9688,193.3252 Z " fill="#000000"/><text fill="#D9B8FF" font-family="Helvetica" font-size="17" lengthAdjust="spacing" textLength="95" x="41" y="193.5698">ai_resource</text></g><!--class gcp_resource--><g id="elem_gcp_resource"><rect codeLine="29" fill="#3D176E" height="39.7891" id="gcp_resource" rx="2.5" ry="2.5" style="stroke:#000D19;stroke-width:0.5;" width="150" x="125.5" y="267.58"/><ellipse cx="140.5" cy="287.4745" fill="#ADD1B2" rx="11" ry="11" style="stroke:#181818;stroke-width:1.0;"/><path d="M143.4688,293.1152 Q142.8906,293.412 142.25,293.5527 Q141.6094,293.7089 140.9063,293.7089 Q138.4063,293.7089 137.0781,292.0683 Q135.7656,290.412 135.7656,287.287 Q135.7656,284.162 137.0781,282.5058 Q138.4063,280.8495 140.9063,280.8495 Q141.6094,280.8495 142.25,281.0058 Q142.9063,281.162 143.4688,281.4589 L143.4688,284.1777 Q142.8438,283.5995 142.25,283.3339 Q141.6563,283.0527 141.0313,283.0527 Q139.6875,283.0527 139,284.1308 Q138.3125,285.1933 138.3125,287.287 Q138.3125,289.3808 139,290.4589 Q139.6875,291.5214 141.0313,291.5214 Q141.6563,291.5214 142.25,291.2558 Q142.8438,290.9745 143.4688,290.3964 L143.4688,293.1152 Z " fill="#000000"/><text fill="#D9B8FF" font-family="Helvetica" font-size="17" lengthAdjust="spacing" textLength="108" x="159.5" y="293.3598">gcp_resource</text></g><!--class gcp_vertex_ai_tuning_job--><g id="elem_gcp_vertex_ai_tuning_job"><rect codeLine="32" fill="#3D176E" height="39.7891" id="gcp_vertex_ai_tuning_job" rx="2.5" ry="2.5" style="stroke:#000D19;stroke-width:0.5;" width="255" x="15" y="528.16"/><ellipse cx="30" cy="548.0545" fill="#ADD1B2" rx="11" ry="11" style="stroke:#181818;stroke-width:1.0;"/><path d="M32.9688,553.6952 Q32.3906,553.992 31.75,554.1327 Q31.1094,554.2889 30.4063,554.2889 Q27.9063,554.2889 26.5781,552.6483 Q25.2656,550.992 25.2656,547.867 Q25.2656,544.742 26.5781,543.0858 Q27.9063,541.4295 30.4063,541.4295 Q31.1094,541.4295 31.75,541.5858 Q32.4063,541.742 32.9688,542.0389 L32.9688,544.7577 Q32.3438,544.1795 31.75,543.9139 Q31.1563,543.6327 30.5313,543.6327 Q29.1875,543.6327 28.5,544.7108 Q27.8125,545.7733 27.8125,547.867 Q27.8125,549.9608 28.5,551.0389 Q29.1875,552.1014 30.5313,552.1014 Q31.1563,552.1014 31.75,551.8358 Q32.3438,551.5545 32.9688,550.9764 L32.9688,553.6952 Z " fill="#000000"/><text fill="#D9B8FF" font-family="Helvetica" font-size="17" lengthAdjust="spacing" textLength="213" x="49" y="553.9398">gcp_vertex_ai_tuning_job</text></g><!--class resource--><g id="elem_resource"><rect codeLine="35" fill="#3D176E" height="39.7891" id="resource" rx="2.5" ry="2.5" style="stroke:#000D19;stroke-width:0.5;" width="113" x="81" y="7"/><ellipse cx="96" cy="26.8945" fill="#ADD1B2" rx="11" ry="11" style="stroke:#181818;stroke-width:1.0;"/><path d="M98.9688,32.5352 Q98.3906,32.832 97.75,32.9727 Q97.1094,33.1289 96.4063,33.1289 Q93.9063,33.1289 92.5781,31.4883 Q91.2656,29.832 91.2656,26.707 Q91.2656,23.582 92.5781,21.9258 Q93.9063,20.2695 96.4063,20.2695 Q97.1094,20.2695 97.75,20.4258 Q98.4063,20.582 98.9688,20.8789 L98.9688,23.5977 Q98.3438,23.0195 97.75,22.7539 Q97.1563,22.4727 96.5313,22.4727 Q95.1875,22.4727 94.5,23.5508 Q93.8125,24.6133 93.8125,26.707 Q93.8125,28.8008 94.5,29.8789 Q95.1875,30.9414 96.5313,30.9414 Q97.1563,30.9414 97.75,30.6758 Q98.3438,30.3945 98.9688,29.8164 L98.9688,32.5352 Z " fill="#000000"/><text fill="#D9B8FF" font-family="Helvetica" font-size="17" lengthAdjust="spacing" textLength="71" x="115" y="32.7798">resource</text></g><!--reverse link ai_resource to ai_job--><g id="link_ai_resource_ai_job"><path codeLine="38" d="M77.574,225.962 C79.684,263.732 83.31,329.05 85.42,366.88 " fill="none" id="ai_resource-backto-ai_job" style="stroke:#FFAF37;stroke-width:2.0;"/><polygon fill="none" points="76.57,207.99,71.5833,226.2966,83.5647,225.6273,76.57,207.99" style="stroke:#FFAF37;stroke-width:2.0;"/></g><!--reverse link resource to ai_resource--><g id="link_resource_ai_resource"><path codeLine="39" d="M123.4716,63.8166 C111.5516,94.3366 94.94,136.9 83.01,167.47 " fill="none" id="resource-backto-ai_resource" style="stroke:#FFAF37;stroke-width:2.0;"/><polygon fill="none" points="130.02,47.05,117.8827,61.6338,129.0604,65.9994,130.02,47.05" style="stroke:#FFAF37;stroke-width:2.0;"/></g><!--reverse link resource to gcp_resource--><g id="link_resource_gcp_resource"><path codeLine="40" d="M146.3895,64.3988 C158.0095,112.1088 184.05,218.98 195.78,267.08 " fill="none" id="resource-backto-gcp_resource" style="stroke:#FFAF37;stroke-width:2.0;"/><polygon fill="none" points="142.13,46.91,140.5599,65.8186,152.2191,62.9789,142.13,46.91" style="stroke:#FFAF37;stroke-width:2.0;"/></g><!--reverse link ai_job to gcp_vertex_ai_tuning_job--><g id="link_ai_job_gcp_vertex_ai_tuning_job"><path codeLine="41" d="M99.2399,424.3941 C110.0099,454.9141 124.94,497.27 135.72,527.83 " fill="none" id="ai_job-backto-gcp_vertex_ai_tuning_job" style="stroke:#FFAF37;stroke-width:2.0;"/><polygon fill="none" points="93.25,407.42,93.5818,426.3908,104.8979,422.3975,93.25,407.42" style="stroke:#FFAF37;stroke-width:2.0;"/></g><!--reverse link gcp_resource to gcp_vertex_ai_tuning_job--><g id="link_gcp_resource_gcp_vertex_ai_tuning_job"><path codeLine="42" d="M192.3002,325.0535 C181.6002,372.7535 157.64,479.56 146.85,527.66 " fill="none" id="gcp_resource-backto-gcp_vertex_ai_tuning_job" style="stroke:#FFAF37;stroke-width:2.0;"/><polygon fill="none" points="196.24,307.49,186.4457,323.7403,198.1547,326.3668,196.24,307.49" style="stroke:#FFAF37;stroke-width:2.0;"/></g><!--SRC=[XP3BRi8m44Nt_WfBh96IeZP4weP6gjeDgahto8d7u9BOqNW2fOz_RoXGZCDZU-_np1dFjGGELKrhNa6L0phc5jhK0aN5HuXsbTdI8kyf9TGW2Sj7Q-WgC1OLy2Sebq2w427nDjV5me1p_CQh7aIncA5jZDoE9nJ6jHKOygYi5CwDY53d3O4d8zDyg5H8XaDx0nadTz31B4h07H95aOpJ4BcwwkBT_yH4VmAF_KyRMuAEPcV57tNHSaDuafr3z_rPnnSXfJOpVkjbhridD817-MGkf5rjQ2LAvwzn10YMrZLadQiW7KgLd8IVpy6is7mT5thwRdF-nTZF8K5mji42_7XMr6Vp9I31nxHzIOrfvSEHn-_y1VVV_Nv_9y6wwJu9Ar-6xKuuDATqs97_5VON]--></g></svg>

<svg xmlns="http://www.w3.org/2000/svg" width="282" height="573" viewBox="0 0 282 573"><rect width="91" height="39.789" x="41" y="367.37" fill="#3D176E" rx="2.5" ry="2.5" style="stroke:#000d19;stroke-width:.5"/><circle cx="56" cy="387.264" r="11" fill="#ADD1B2" style="stroke:#181818;stroke-width:1"/><path d="M58.969 392.905q-.578.297-1.219.438-.64.156-1.344.156-2.5 0-3.828-1.64-1.312-1.657-1.312-4.782t1.312-4.781q1.328-1.656 3.828-1.656.703 0 1.344.156.656.156 1.219.453v2.719q-.625-.579-1.219-.844-.594-.281-1.219-.281-1.343 0-2.031 1.078-.687 1.062-.687 3.156t.687 3.172q.688 1.062 2.031 1.062.625 0 1.219-.265.594-.281 1.219-.86z"/><text x="75" y="393.15" fill="#D9B8FF" font-family="Helvetica" font-size="17" textLength="49">ai_job</text><rect width="137" height="39.789" x="7" y="167.79" fill="#3D176E" rx="2.5" ry="2.5" style="stroke:#000d19;stroke-width:.5"/><circle cx="22" cy="187.685" r="11" fill="#ADD1B2" style="stroke:#181818;stroke-width:1"/><path d="M24.969 193.325q-.578.297-1.219.438-.64.156-1.344.156-2.5 0-3.828-1.64-1.312-1.657-1.312-4.782t1.312-4.781q1.328-1.656 3.828-1.656.703 0 1.344.156.656.156 1.219.453v2.719q-.625-.578-1.219-.844-.594-.281-1.219-.281-1.343 0-2.031 1.078-.687 1.062-.687 3.156t.687 3.172q.688 1.062 2.031 1.062.625 0 1.219-.265.594-.281 1.219-.86z"/><text x="41" y="193.57" fill="#D9B8FF" font-family="Helvetica" font-size="17" textLength="95">ai_resource</text><rect width="150" height="39.789" x="125.5" y="267.58" fill="#3D176E" rx="2.5" ry="2.5" style="stroke:#000d19;stroke-width:.5"/><circle cx="140.5" cy="287.474" r="11" fill="#ADD1B2" style="stroke:#181818;stroke-width:1"/><path d="M143.469 293.115q-.578.297-1.219.438-.64.156-1.344.156-2.5 0-3.828-1.64-1.312-1.657-1.312-4.782t1.312-4.781q1.328-1.656 3.828-1.656.703 0 1.344.156.656.156 1.219.453v2.719q-.625-.579-1.219-.844-.594-.281-1.219-.281-1.344 0-2.031 1.078-.687 1.062-.687 3.156t.687 3.172q.688 1.062 2.031 1.062.625 0 1.219-.265.594-.281 1.219-.86z"/><text x="159.5" y="293.36" fill="#D9B8FF" font-family="Helvetica" font-size="17" textLength="108">gcp_resource</text><rect width="255" height="39.789" x="15" y="528.16" fill="#3D176E" rx="2.5" ry="2.5" style="stroke:#000d19;stroke-width:.5"/><circle cx="30" cy="548.054" r="11" fill="#ADD1B2" style="stroke:#181818;stroke-width:1"/><path d="M32.969 553.695q-.578.297-1.219.438-.64.156-1.344.156-2.5 0-3.828-1.64-1.312-1.657-1.312-4.782t1.312-4.781q1.328-1.657 3.828-1.657.703 0 1.344.157.656.156 1.219.453v2.719q-.625-.579-1.219-.844-.594-.281-1.219-.281-1.343 0-2.031 1.078-.687 1.062-.687 3.156t.687 3.172q.688 1.062 2.031 1.062.625 0 1.219-.265.594-.282 1.219-.86z"/><text x="49" y="553.94" fill="#D9B8FF" font-family="Helvetica" font-size="17" textLength="213">gcp_vertex_ai_tuning_job</text><rect width="113" height="39.789" x="81" y="7" fill="#3D176E" rx="2.5" ry="2.5" style="stroke:#000d19;stroke-width:.5"/><circle cx="96" cy="26.895" r="11" fill="#ADD1B2" style="stroke:#181818;stroke-width:1"/><path d="M98.969 32.535q-.578.297-1.219.438-.64.156-1.344.156-2.5 0-3.828-1.64-1.312-1.657-1.312-4.782t1.312-4.781q1.328-1.656 3.828-1.656.703 0 1.344.156.656.156 1.219.453v2.719q-.625-.578-1.219-.844-.594-.281-1.219-.281-1.344 0-2.031 1.078-.687 1.062-.687 3.156t.687 3.172q.688 1.062 2.031 1.062.625 0 1.219-.265.594-.281 1.219-.86z"/><text x="115" y="32.78" fill="#D9B8FF" font-family="Helvetica" font-size="17" textLength="71">resource</text><g fill="none"><path d="M77.574 225.962c2.11 37.77 5.736 103.088 7.846 140.918" style="stroke:#ffaf37;stroke-width:2"/><path d="m76.57 207.99-4.987 18.307 11.982-.67z" style="stroke:#ffaf37;stroke-width:2"/></g><path fill="none" d="M123.472 63.817C111.552 94.337 94.94 136.9 83.01 167.47m47.01-120.42-12.137 14.584 11.177 4.365zm16.37 17.349c11.62 47.71 37.66 154.581 49.39 202.681M142.13 46.91l-1.57 18.909 11.66-2.84zM99.24 424.394c10.77 30.52 25.7 72.876 36.48 103.436M93.25 407.42l.332 18.97 11.316-3.993zm99.05-82.366L146.85 527.66m49.39-220.17-9.794 16.25 11.709 2.627z" style="stroke:#ffaf37;stroke-width:2"/></svg>
